X:7741
T:Tyskeren
T:Die alte Kath - Zwiefacher
O:england
C:C.E. Lundgard Jensen: To-rader pa dansk
M:3/4
L:1/4
K:G
d>c B/c/|dBG|FA|GB|\
d>c B/c/|dBG|FA|G2:|
Ec/B/c|D B/A/ B/G/|FA|GB|\
Ec/B/c|D B/A/ B/G/|FA|G2:|
